flaticon/emoticons/pirate-2.svg

<svg xmlns="http://www.w3.org/2000/svg" width="32" height="32" viewBox="0 0 24 24">
    <path d="M18 14.183594L6 14.183594C5.699219 14.183594 5.453125 14.425781 5.453125 14.726562 5.453125 18.335938 8.390625 21.273438 12 21.273438 15.609375 21.273438 18.546875 18.335938 18.546875 14.726562 18.546875 14.425781 18.300781 14.183594 18 14.183594zM12.546875 15.273438L13.636719 15.273438 13.636719 16.363281 12.546875 16.363281zM11.453125 15.273438L11.453125 17.453125 10.363281 17.453125 10.363281 15.273438zM12 20.183594C9.175781 20.183594 6.847656 18.023438 6.574219 15.273438L9.273438 15.273438 9.273438 18C9.273438 18.300781 9.515625 18.546875 9.816406 18.546875L12 18.546875C12.300781 18.546875 12.546875 18.300781 12.546875 18L12.546875 17.453125 14.183594 17.453125C14.484375 17.453125 14.726562 17.210938 14.726562 16.910156L14.726562 15.273438 17.425781 15.273438C17.152344 18.023438 14.824219 20.183594 12 20.183594zM18.546875 8.183594C18.546875 9.085938 17.8125 9.816406 16.910156 9.816406 16.003906 9.816406 15.273438 9.085938 15.273438 8.183594 15.273438 7.277344 16.003906 6.546875 16.910156 6.546875 17.8125 6.546875 18.546875 7.277344 18.546875 8.183594zM18.546875 8.183594"/>
    <path d="M 16.910156 4.363281 C 14.804688 4.363281 13.089844 6.078125 13.089844 8.183594 C 13.089844 10.285156 14.804688 12 16.910156 12 C 19.015625 12 20.726562 10.285156 20.726562 8.183594 C 20.726562 6.078125 19.015625 4.363281 16.910156 4.363281 Z M 16.910156 10.910156 C 15.40625 10.910156 14.183594 9.6875 14.183594 8.183594 C 14.183594 6.679688 15.40625 5.453125 16.910156 5.453125 C 18.414062 5.453125 19.636719 6.679688 19.636719 8.183594 C 19.636719 9.6875 18.414062 10.910156 16.910156 10.910156 Z M 16.910156 10.910156"/>
    <path d="M 12 0 C 5.382812 0 0 5.382812 0 12 C 0 18.617188 5.382812 24 12 24 C 18.617188 24 24 18.617188 24 12 C 24 5.382812 18.617188 0 12 0 Z M 12 1.089844 C 13.332031 1.089844 14.601562 1.34375 15.78125 1.78125 L 11.121094 5.171875 C 11.089844 5.125 11.066406 5.074219 11.035156 5.023438 C 10.636719 4.398438 10.175781 4.039062 9.632812 3.917969 C 8.667969 3.707031 7.726562 4.320312 6.640625 5.023438 L 5.835938 5.535156 C 4.742188 6.222656 3.792969 6.816406 3.574219 7.78125 C 3.453125 8.328125 3.585938 8.894531 3.988281 9.519531 C 4.09375 9.6875 4.214844 9.84375 4.339844 9.992188 L 1.117188 12.5 C 1.109375 12.332031 1.089844 12.167969 1.089844 12 C 1.089844 5.984375 5.984375 1.089844 12 1.089844 Z M 4.90625 8.933594 C 4.671875 8.566406 4.585938 8.269531 4.640625 8.019531 C 4.757812 7.5 5.527344 7.019531 6.417969 6.460938 L 7.234375 5.9375 C 8.03125 5.421875 8.726562 4.96875 9.242188 4.96875 C 9.296875 4.96875 9.347656 4.976562 9.398438 4.984375 C 9.648438 5.039062 9.882812 5.246094 10.117188 5.613281 C 11.03125 7.046875 10.609375 8.960938 9.171875 9.878906 C 7.734375 10.792969 5.824219 10.371094 4.90625 8.933594 Z M 12 22.910156 C 6.59375 22.910156 2.101562 18.949219 1.25 13.78125 L 5.167969 10.730469 C 5.867188 11.199219 6.6875 11.453125 7.519531 11.453125 C 8.285156 11.453125 9.0625 11.242188 9.757812 10.796875 C 11.328125 9.796875 12.003906 7.917969 11.550781 6.207031 L 16.941406 2.285156 C 20.476562 4.09375 22.910156 7.765625 22.910156 12 C 22.910156 18.015625 18.015625 22.910156 12 22.910156 Z M 12 22.910156"/>
</svg>

<svg xmlns="http://www.w3.org/2000/svg" width="32" height="32" viewBox="0 0 24 24">
    <path d="M18 14.184H6c-.3 0-.547.242-.547.543A6.555 6.555 0 0 0 12 21.273a6.555 6.555 0 0 0 6.547-6.546c0-.301-.246-.543-.547-.543zm-5.453 1.09h1.09v1.09h-1.09zm-1.094 0v2.18h-1.09v-2.18zm.547 4.91a5.462 5.462 0 0 1-5.426-4.91h2.7V18c0 .3.242.547.542.547H12c.3 0 .547-.246.547-.547v-.547h1.637c.3 0 .543-.242.543-.543v-1.637h2.699A5.462 5.462 0 0 1 12 20.183zm0 0M18.547 8.184c0 .902-.735 1.632-1.637 1.632a1.634 1.634 0 1 1 0-3.27c.902 0 1.637.731 1.637 1.638zm0 0"/>
    <path d="M16.91 4.363a3.826 3.826 0 0 0-3.82 3.82A3.825 3.825 0 0 0 16.91 12a3.822 3.822 0 0 0 3.817-3.816c0-2.106-1.711-3.82-3.817-3.82zm0 6.547a2.729 2.729 0 0 1 0-5.457 2.729 2.729 0 0 1 0 5.457zm0 0"/>
    <path d="M12 0C5.383 0 0 5.383 0 12s5.383 12 12 12 12-5.383 12-12S18.617 0 12 0zm0 1.09c1.332 0 2.602.254 3.781.691l-4.66 3.39c-.031-.046-.055-.097-.086-.148-.398-.625-.86-.984-1.402-1.105-.965-.211-1.906.402-2.992 1.105l-.805.512c-1.094.688-2.043 1.281-2.262 2.246-.12.547.012 1.114.414 1.739.106.168.227.324.352.472L1.117 12.5c-.008-.168-.027-.332-.027-.5C1.09 5.984 5.984 1.09 12 1.09zM4.906 8.934c-.234-.368-.32-.664-.265-.914.117-.52.886-1 1.777-1.56l.816-.522c.797-.516 1.493-.97 2.008-.97.055 0 .106.009.156.016.25.055.485.262.72.63a3.094 3.094 0 0 1-.946 4.265 3.094 3.094 0 0 1-4.266-.945zM12 22.91c-5.406 0-9.898-3.96-10.75-9.129l3.918-3.05c.7.468 1.52.722 2.352.722a4.178 4.178 0 0 0 4.031-5.246l5.39-3.922c3.536 1.809 5.97 5.48 5.97 9.715 0 6.016-4.895 10.91-10.911 10.91zm0 0"/>
</svg>
